material/.icons/material/seat-legroom-reduced.svg

<svg xmlns="http://www.w3.org/2000/svg" viewBox="0 0 24 24"><path d="M19.97 19.2c.18.96-.55 1.8-1.47 1.8H14v-3l1-4H9a3 3 0 01-3-3V3h6v6h5a2 2 0 012 2l-2 7h1.44c.73 0 1.39.5 1.53 1.2M5 12V3H3v9a5 5 0 005 5h4v-2H8a3 3 0 01-3-3z"/></svg>

<?xml version="1.0" encoding="UTF-8"?><!DOCTYPE svg PUBLIC "-//W3C//DTD SVG 1.1//EN" "http://www.w3.org/Graphics/SVG/1.1/DTD/svg11.dtd"><svg xmlns="http://www.w3.org/2000/svg" xmlns:xlink="http://www.w3.org/1999/xlink" version="1.1" id="mdi-seat-legroom-reduced" width="24" height="24" viewBox="0 0 24 24"><path d="M19.97,19.2C20.15,20.16 19.42,21 18.5,21H14V18L15,14H9A3,3 0 0,1 6,11V3H12V9H17A2,2 0 0,1 19,11L17,18H18.44C19.17,18 19.83,18.5 19.97,19.2M5,12V3H3V12A5,5 0 0,0 8,17H12V15H8A3,3 0 0,1 5,12Z" /></svg>
